X: 63
T: 59. QUADRILLE
B: Sam Bayard, "Hill Country Tunes" 1944 #59
S: Played by Robert Crow, Claysville, PA, Sept 13, 1943.  Learned in that region.
R: reel
M: 4/4
L: 1/8
Z: 2010 John Chambers <jc:trillian.mit.edu>
K: C
G2- |\
[G2G,2]BB A2G2 | E2G2 [c4E4] | [G2G,2]Bc d2c2 | ((3BcB) A2 G4- |
[G2G,2]"a."cd e2d2 | c2E2 [F4A,4] | G2Bc "b."dcBd | c2 ((3dcB) c2z2 ||
K: G
d2cc B2d2 | g2a2 b4 | a2"c."bb d'2f2 | gfga b2z2 |
d2gf e2d2 | B2d2 g2z2 | f2ga b2f2 | gfga g2z2 |]
P: Var:
"a."Bc || "b."d2B2 || "c."aa |]

%%sep 2 1 500
%%sep 1 1 500

